X:1
T:What Are You Doing for Them?
T:What Are You Doing for Them?
T:Mrs. H. S. Lehman
T:Mrs. H. S. Lehman, 1921
T:Public Domain Courtesy of the Cyber Hymnal™
T:Public Domain Courtesy of the Cyber Hymnal™
C:Mrs. H. S. Lehman
Z:Public Domain
Z:Courtesy of the Cyber Hymnal™
%%score ( 1 2 ) ( 3 4 )
L:1/8
Q:1/4=145
M:6/4
K:F
V:1 treble 
V:2 treble 
V:3 bass 
V:4 bass 
V:1
 [FA]2 [F^G]2 [FA]2 [Fc]2 [FA]2 [CF]2 | ([CF]2 [CE]2) [CE]2 [CE]6 | %2
w: 1.~Is- ra- el’s sheep, scat- tered|far * and wide,|
w: 2.~“First to the Jew” was the|order * He gave;|
w: 3.~Hid for a mo- ment His|face~at * their call,|
 [EB]2 [B,D]2 [B,E]2 ([B,C]2 [B,E]2) [B,D]2 | [A,C]2 [CF]2 [CG]2 [CA]6 | %4
w: Wan- der- ing on~with * no|shep- herd to guide,|
w: First to the Jew * came|Je- sus to save;|
w: Soon in His mercy * He’ll|ga- ther them all;|
 [FA]2 [FA]2 [FA]2 ([_EA]2 [EG]2) [EF]2 | [DB]2 [DB]2 [DB]2 [B,D]6 | %6
w: Far from the Savior * who|for them has died;|
w: First to the Jew * when|sins He for- gave;|
w: Loved for their fathers, * e’en|far tho’ they fall;|
 [B,C]2 [CE]2 C2 [EB]2 [FA]2 [CG]2 | [CF]6- [CF]4 z2 || %8
w: What are you do- ing for|them? *|
w: What are you do- ing for|them? *|
w: What are you do- ing for|them? *|
"^Refrain" [Ec]2 [Ec]2 [EG]2 [Ec][Ec] z2 [EG]2 | [FA]2 [^Gd]2 [G=B]2 [Ac]4 [FA]2 | %10
w: ||
w: How Je- sus loved them! but|we have des- pised, For-|
w: ||
 [EG][EG] z2 [CE]2 [EG][EG] z2 [Cc]2 | [EG]2 [DF]2 [=B,D]2 [_B,G]6 | %12
w: ||
w: got- ten, ne- glect- ed, in|scorn un- dis- guised;|
w: ||
 [CA]2 [FA]2 [FA]2 [_EA]2 [EG]2 [EF]2 | [DB]2 [DF]2 [FG]2 [EA]4 [GA]2 | %14
w: ||
w: Think you to face Him and|hear His “Well done,” With|
w: ||
 [^Fd]2 [Fc]2 [FA]2 [Ac]2 [GB]2 G2 | [FA]2 [EA]2 [EG]2 [CF]6 |] %16
w: ||
w: Is- rael, His cho- sen, left|dy- ing a- lone?|
w: ||
V:2
 x12 | x12 | x12 | x12 | x12 | x12 | x4 C2 x6 | x12 || x12 | x12 | x12 | x12 | x12 | x12 | x10 G2 | %15
 x12 |] %16
V:3
 [F,C]2 [F,=B,]2 [F,C]2 [F,A,]2 [F,C]2 [F,A,]2 | ([G,B,]2 [G,B,]2) [G,B,]2 [G,B,]6 | %2
 [C,G,]2 [C,G,]2 [C,G,]2 ([C,E,]2 [C,G,]2) [C,E,]2 | F,2 [A,,F,]2 [C,E,]2 F,6 | %4
 [F,C]2 [F,C]2 [F,C]2 ([F,C]2 [F,B,]2) [F,A,]2 | [B,,B,]2 [B,,F,]2 [B,,F,]2 [B,,F,]6 | %6
 [C,E,]2 [C,G,]2 [C,E,]2 [C,D]2 [C,C]2 [C,B,]2 | [F,A,]6- [F,A,]4 z2 || %8
 [C,G,]2 [C,G,]2 [C,C]2 [C,G,][C,G,] z2 [C,C]2 | [F,C]2 [F,=B,]2 [F,D]2 [F,C]4 [F,C]2 | %10
 [C,C][C,C] z2 [C,G,]2 [C,C][C,C] z2 [E,G,]2 | G,2 [G,=B,]2 G,2 ([C,E,]2 [D,F,]2 [E,G,]2) | %12
 F,2 [F,C]2 [F,C]2 [F,C]2 [F,B,]2 [F,A,]2 | [B,,B,]2 [B,,B,]2 [B,,D]2 [A,,^C]4 A,2 | %14
 [D,A,]2 [D,A,]2 [D,D]2 [G,D]2 [G,D]2 [B,,D]2 | [C,C]2 [C,C]2 [C,B,]2 [F,A,]6 |] %16
V:4
 x12 | x12 | x12 | F,2 x2 F,6 x2 | x12 | x12 | x12 | x12 || x12 | x12 | x12 | G,2 G,2 x8 | %12
 F,2 x10 | x10 A,2 | x12 | x12 |] %16

